assets/icons/qvision/recent_actors.svg

<svg xmlns="http://www.w3.org/2000/svg" height="24" viewBox="0 0 24 24" width="24"><path d="M0 0h24v24H0z" fill="none"/><path d="M21 5v14h2V5h-2zm-4 14h2V5h-2v14zM14 5H2c-.55 0-1 .45-1 1v12c0 .55.45 1 1 1h12c.55 0 1-.45 1-1V6c0-.55-.45-1-1-1zM8 7.75c1.24 0 2.25 1.01 2.25 2.25S9.24 12.25 8 12.25 5.75 11.24 5.75 10 6.76 7.75 8 7.75zM12.5 17h-9v-.75c0-1.5 3-2.25 4.5-2.25s4.5.75 4.5 2.25V17z"/></svg>

<svg width="24" height="24" viewBox="0 0 24 24" fill="none" xmlns="http://www.w3.org/2000/svg">
<g clip-path="url(#clip0_147_1581)">
<path d="M21 5V19H23V5H21ZM17 19H19V5H17V19ZM14 5H2C1.45 5 1 5.45 1 6V18C1 18.55 1.45 19 2 19H14C14.55 19 15 18.55 15 18V6C15 5.45 14.55 5 14 5ZM8 7.75C9.24 7.75 10.25 8.76 10.25 10C10.25 11.24 9.24 12.25 8 12.25C6.76 12.25 5.75 11.24 5.75 10C5.75 8.76 6.76 7.75 8 7.75ZM12.5 17H3.5V16.25C3.5 14.75 6.5 14 8 14C9.5 14 12.5 14.75 12.5 16.25V17Z" fill="#323232"/>
</g>
<defs>
<clipPath id="clip0_147_1581">
<rect width="24" height="24" fill="white"/>
</clipPath>
</defs>
</svg>
